assets/Bubble tea/Flat/bubble_tea_flat.svg

<svg width="32" height="32" viewBox="0 0 32 32" fill="none" xmlns="http://www.w3.org/2000/svg">
<path d="M7.2 11L7 9L7.2 8.75H24.8L25 9L24.8 11L24.5 11.25H7.5L7.2 11Z" fill="#83CBFF"/>
<path d="M17 2V11L16 12L15 11V2H17Z" fill="#8D65C5"/>
<path d="M6 8C6 7.44772 6.44772 7 7 7H25C25.5523 7 26 7.44772 26 8C26 8.55228 25.5523 9 25 9H7C6.44772 9 6 8.55228 6 8Z" fill="#AEDDFF"/>
<path d="M17 7V9H15V7H17Z" fill="#BCA4EB"/>
<path d="M7.20001 11H24.8L23 29C22.9026 29.6055 22.5 30 22 30H10C9.50001 30 9.07588 29.5633 9.00001 29L7.20001 11Z" fill="#F3AD61"/>
<path d="M13.35 25.62C12.6265 25.62 12.04 25.0335 12.04 24.31C12.04 23.5865 12.6265 23 13.35 23C14.0735 23 14.66 23.5865 14.66 24.31C14.66 25.0335 14.0735 25.62 13.35 25.62Z" fill="#8C5543"/>
<path d="M18.65 25.62C17.9265 25.62 17.34 25.0335 17.34 24.31C17.34 23.5865 17.9265 23 18.65 23C19.3735 23 19.96 23.5865 19.96 24.31C19.96 25.0335 19.3735 25.62 18.65 25.62Z" fill="#8C5543"/>
<path d="M22.52 27.61C22.52 28.3335 21.9335 28.92 21.21 28.92C20.4865 28.92 19.9 28.3335 19.9 27.61C19.9 26.8865 20.4865 26.3 21.21 26.3C21.9335 26.3 22.52 26.8865 22.52 27.61Z" fill="#8C5543"/>
<path d="M16.26 28.92C15.5365 28.92 14.95 28.3335 14.95 27.61C14.95 26.8865 15.5365 26.3 16.26 26.3C16.9835 26.3 17.57 26.8865 17.57 27.61C17.57 28.3335 16.9835 28.92 16.26 28.92Z" fill="#8C5543"/>
<path d="M12.62 27.61C12.62 28.3335 12.0335 28.92 11.31 28.92C10.5865 28.92 10 28.3335 10 27.61C10 26.8865 10.5865 26.3 11.31 26.3C12.0335 26.3 12.62 26.8865 12.62 27.61Z" fill="#8C5543"/>
<path d="M19.44 26.92L20.57 13.91C20.61 13.4 21.05 13 21.56 13C22.14 13 22.6 13.5 22.55 14.08L21.42 27.09C21.38 27.61 20.95 28 20.43 28C19.85 28 19.39 27.5 19.44 26.92Z" fill="#FFF3D7"/>
</svg>

<svg xmlns="http://www.w3.org/2000/svg" width="32" height="32" fill="none"><path fill="#83CBFF" d="M7.2 11 7 9l.2-.25h17.6L25 9l-.2 2-.3.25h-17L7.2 11Z"/><path fill="#8D65C5" d="M17 2v9l-1 1-1-1V2h2Z"/><path fill="#AEDDFF" d="M6 8a1 1 0 0 1 1-1h18a1 1 0 1 1 0 2H7a1 1 0 0 1-1-1Z"/><path fill="#BCA4EB" d="M17 7v2h-2V7h2Z"/><path fill="#F3AD61" d="M7.2 11h17.6L23 29c-.097.605-.5 1-1 1H10c-.5 0-.924-.437-1-1L7.2 11Z"/><path fill="#8C5543" d="M13.35 25.62a1.31 1.31 0 1 1 0-2.62 1.31 1.31 0 0 1 0 2.62ZM18.65 25.62a1.31 1.31 0 1 1 0-2.62 1.31 1.31 0 0 1 0 2.62ZM22.52 27.61a1.31 1.31 0 1 1-2.62 0 1.31 1.31 0 0 1 2.62 0ZM16.26 28.92a1.31 1.31 0 1 1 0-2.62 1.31 1.31 0 0 1 0 2.62ZM12.62 27.61a1.31 1.31 0 1 1-2.62 0 1.31 1.31 0 0 1 2.62 0Z"/><path fill="#FFF3D7" d="m19.44 26.92 1.13-13.01a1 1 0 0 1 .99-.91c.58 0 1.04.5.99 1.08l-1.13 13.01c-.04.52-.47.91-.99.91-.58 0-1.04-.5-.99-1.08Z"/></svg>
